icons/svg/office/educational_institution.svg

<?xml version="1.0" encoding="UTF-8" standalone="no"?>
<!-- Created with Inkscape (http://www.inkscape.org/) -->

<svg
   xmlns:dc="http://purl.org/dc/elements/1.1/"
   xmlns:cc="http://creativecommons.org/ns#"
   xmlns:rdf="http://www.w3.org/1999/02/22-rdf-syntax-ns#"
   xmlns:svg="http://www.w3.org/2000/svg"
   xmlns="http://www.w3.org/2000/svg"
   xmlns:sodipodi="http://sodipodi.sourceforge.net/DTD/sodipodi-0.dtd"
   xmlns:inkscape="http://www.inkscape.org/namespaces/inkscape"
   version="1.0"
   width="580"
   height="580"
   id="svg2"
   sodipodi:version="0.32"
   inkscape:version="0.91 r"
   sodipodi:docname="educational_institution.svg"
   inkscape:output_extension="org.inkscape.output.svg.inkscape">
  <metadata
     id="metadata10">
    <rdf:RDF>
      <cc:Work
         rdf:about="">
        <dc:format>image/svg+xml</dc:format>
        <dc:type
           rdf:resource="http://purl.org/dc/dcmitype/StillImage" />
        <cc:license
           rdf:resource="http://web.resource.org/cc/PublicDomain" />
        <dc:language>en</dc:language>
        <dc:title />
      </cc:Work>
    </rdf:RDF>
  </metadata>
  <sodipodi:namedview
     inkscape:window-height="1004"
     inkscape:window-width="1920"
     inkscape:pageshadow="2"
     inkscape:pageopacity="0.0"
     guidetolerance="10.0"
     gridtolerance="10.0"
     objecttolerance="10.0"
     borderopacity="1.0"
     bordercolor="#666666"
     pagecolor="#ffffff"
     id="base"
     showgrid="false"
     inkscape:zoom="1"
     inkscape:cx="525.34888"
     inkscape:cy="310.43814"
     inkscape:window-x="1680"
     inkscape:window-y="0"
     inkscape:current-layer="svg2"
     inkscape:window-maximized="1" />
  <defs
     id="defs4">
    <inkscape:perspective
       sodipodi:type="inkscape:persp3d"
       inkscape:vp_x="0 : 290 : 1"
       inkscape:vp_y="0 : 1000 : 0"
       inkscape:vp_z="580 : 290 : 1"
       inkscape:persp3d-origin="290 : 193.33333 : 1"
       id="perspective12" />
  </defs>
  <g
     id="g1327">
    <path
       d="M 66.275,1.768 C 24.94,1.768 1.704,23.139 1.704,66.804 L 1.704,516.927 C 1.704,557.771 22.598,579.156 63.896,579.156 L 515.92,579.156 C 557.227,579.156 578.149,558.84 578.149,516.927 L 578.149,66.804 C 578.149,24.203 557.227,1.768 514.627,1.768 C 514.624,1.768 66.133,1.625 66.275,1.768 z"
       style="fill:#111111;stroke:#eeeeee;stroke-width:3.40799999"
       id="path1329" />
  </g>
  <path
     inkscape:connector-curvature="0"
     style="color:#000000;clip-rule:nonzero;display:inline;overflow:visible;visibility:visible;opacity:1;isolation:auto;mix-blend-mode:normal;color-interpolation:sRGB;color-interpolation-filters:linearRGB;solid-color:#000000;solid-opacity:1;fill:#ffffff;fill-opacity:1;fill-rule:nonzero;stroke:none;stroke-width:25;stroke-linecap:round;stroke-linejoin:round;stroke-miterlimit:4;stroke-dasharray:none;stroke-dashoffset:0;stroke-opacity:1;marker:none;color-rendering:auto;image-rendering:auto;shape-rendering:auto;text-rendering:auto;enable-background:accumulate"
     d="m 151.9707,306.31641 c -15.16319,0 -28.17493,9.21233 -33.74414,22.34765 l -2.89258,35.31446 0,38.75586 c 0,4.71422 0.89771,9.21518 2.51954,13.35546 l -79.132817,0 0,26.78907 0,10.71679 0,92.875 24.779038,0 0,-92.875 254.074739,0 0,92.875 24.77513,0 0,-92.875 0.002,0 0,-37.50586 -79.13281,0 c 1.62182,-4.14028 2.51953,-8.64126 2.51953,-13.35546 l 0,-38.75391 -2.89258,-35.31836 c -5.5692,-13.13175 -18.58094,-22.3457 -33.74414,-22.3457 l -77.13086,0 z m -7.71289,49.17382 8.67774,0 0,60.59961 -8.67774,0 z m 83.87891,0 8.67773,0 0,60.59961 -8.67773,0 z"
     id="path4178"
     sodipodi:nodetypes="sccsccccccccccccccsccscscccccccccc" />
  <path
     inkscape:connector-curvature="0"
     style="color:#000000;clip-rule:nonzero;display:inline;overflow:visible;visibility:visible;opacity:1;isolation:auto;mix-blend-mode:normal;color-interpolation:sRGB;color-interpolation-filters:linearRGB;solid-color:#000000;solid-opacity:1;fill:#ffffff;fill-opacity:1;fill-rule:nonzero;stroke:none;stroke-width:25;stroke-linecap:round;stroke-linejoin:round;stroke-miterlimit:4;stroke-dasharray:none;stroke-dashoffset:0;stroke-opacity:1;marker:none;color-rendering:auto;image-rendering:auto;shape-rendering:auto;text-rendering:auto;enable-background:accumulate"
     d="m 190.53711,201.07227 c -24.76076,0 -44.83397,20.07127 -44.83399,44.83203 0,24.76075 20.07323,44.83203 44.83399,44.83203 24.76076,0 44.83203,-20.07128 44.83203,-44.83203 0,-24.76076 -20.07127,-44.83203 -44.83203,-44.83203 z"
     id="path4176" />
  <rect
     style="color:#000000;clip-rule:nonzero;display:inline;overflow:visible;visibility:visible;opacity:0;isolation:auto;mix-blend-mode:normal;color-interpolation:sRGB;color-interpolation-filters:linearRGB;solid-color:#000000;solid-opacity:1;fill:#ffffff;fill-opacity:1;fill-rule:nonzero;stroke:none;stroke-width:29;stroke-linecap:round;stroke-linejoin:round;stroke-miterlimit:10;stroke-dasharray:none;stroke-dashoffset:0;stroke-opacity:1;marker:none;color-rendering:auto;image-rendering:auto;shape-rendering:auto;text-rendering:auto;enable-background:accumulate"
     id="rect4162"
     width="112.5"
     height="178"
     x="608.5"
     y="263.5" />
  <ellipse
     style="color:#000000;clip-rule:nonzero;display:inline;overflow:visible;visibility:visible;opacity:0;isolation:auto;mix-blend-mode:normal;color-interpolation:sRGB;color-interpolation-filters:linearRGB;solid-color:#000000;solid-opacity:1;fill:#ffffff;fill-opacity:1;fill-rule:nonzero;stroke:none;stroke-width:29;stroke-linecap:round;stroke-linejoin:round;stroke-miterlimit:10;stroke-dasharray:none;stroke-dashoffset:0;stroke-opacity:1;marker:none;color-rendering:auto;image-rendering:auto;shape-rendering:auto;text-rendering:auto;enable-background:accumulate"
     id="path4164"
     cx="462.75"
     cy="372.25"
     rx="234.25"
     ry="103.75" />
  <path
     d="m 321.61125,152.997 c 2.76999,0 5.35661,-0.68297 7.7403,-2.02727 2.38266,-1.34431 4.07205,-2.97807 5.06921,-4.91263 0.99818,-1.93456 1.50088,-4.45011 1.50088,-7.54561 l 0,-3.97728 c -3.41999,1.22172 -6.99656,2.29922 -10.70395,3.23663 -5.05066,1.3443 -8.24815,2.67418 -9.59245,3.97728 -1.38551,1.3443 -2.06641,2.87093 -2.06641,4.58196 0,1.95413 0.68297,3.5539 2.04684,4.79622 1.3649,1.24232 3.35715,1.8707 6.00558,1.8707 z"
     id="path21"
     inkscape:connector-curvature="0"
     style="fill:#ffffff" />
  <path
     d="m 419.61967,189.06551 c -3.38084,0 -6.12816,1.23923 -8.26669,3.74448 -2.13852,2.50524 -3.21705,6.31255 -3.21705,11.40442 0,5.58015 1.06102,9.62233 3.15937,12.12654 2.09629,2.50524 4.73751,3.76302 7.95353,3.76302 2.97395,0 5.47198,-1.24026 7.48792,-3.70327 2.01594,-2.46507 3.03988,-6.61335 3.03988,-12.43867 0,-5.13204 -0.98685,-8.88578 -2.96365,-11.28802 -1.97473,-2.40429 -4.38315,-3.6085 -7.19331,-3.6085 z"
     id="path23"
     inkscape:connector-curvature="0"
     style="fill:#ffffff" />
  <path
     d="m 547.71781,77.000114 -102.90869,0 -21.49648,-50.741503 c -1.64303,-3.878391 -5.59868,-6.07357 -9.57802,-5.661523 -3.98759,-0.413077 -7.94015,1.787253 -9.58009,5.670794 l -21.42953,50.733262 -101.13276,0 c -3.44471,0 -6.23839,2.792647 -6.23839,6.239419 l 0,166.567857 c 0,3.44574 2.79368,6.23942 6.23839,6.23942 l 30.66555,0 -17.26373,41.79597 c -1.97371,4.77665 0.29976,10.24863 5.07745,12.22131 1.16815,0.48415 4.14528,0.71078 5.33506,0.71078 3.67649,0 9.82867,-2.1787 11.31822,-5.7872 l 20.55498,-48.94086 150.86474,0 19.95245,48.94086 c 1.97267,4.77665 11.52411,7.05012 16.30077,5.07642 4.77562,-1.97268 10.05012,-7.44466 8.07641,-12.22131 l -17.2627,-41.79597 32.50534,0 c 3.44677,0 6.24045,-2.79368 6.24045,-6.23942 l 0,-166.568887 c 0,-3.445742 -2.79368,-6.239419 -6.23942,-6.239419 z m -133.97186,-19.840878 7.23588,19.841908 -14.44189,0 z M 288.62382,148.16163 c 0,-4.92911 1.45555,-8.98777 4.34812,-12.16569 2.89051,-3.17791 8.22651,-5.52966 16.00699,-7.07793 9.32771,-1.87378 15.3611,-3.18409 18.13212,-3.93917 2.76895,-0.75301 5.71715,-1.74089 8.81162,-2.96158 0,-3.05636 -0.62734,-5.19385 -1.89027,-6.41557 -1.26395,-1.22172 -3.49209,-1.83258 -6.66897,-1.83258 -4.07309,0 -7.12635,0.64588 -9.16393,1.95104 -1.58844,1.01776 -2.88226,2.93996 -3.85984,5.75115 l -23.7648,-2.51555 c 0.89414,-4.15446 2.189,-7.42302 3.87942,-9.80671 1.68939,-2.38267 4.13386,-4.44805 7.31074,-6.19925 2.28068,-1.26395 5.40502,-2.23226 9.39673,-2.9245 3.9917,-0.692239 8.32231,-1.05278 12.96505,-1.05278 7.45392,0 13.43478,0.432649 17.957,1.26704 4.52118,0.83543 8.2945,2.57736 11.30862,5.22476 2.11792,1.83361 3.78877,4.4192 5.01049,7.77944 1.22275,3.36127 1.83155,6.57627 1.83155,9.63159 l 0,28.64035 c 0,3.05429 0.19675,5.46374 0.58511,7.19433 0.34405,1.54209 1.07441,3.48695 2.14676,5.79029 l -0.009,0.83749 -22.94071,0 c -0.93843,-1.66982 -1.54826,-2.94511 -1.83258,-3.82071 -0.28534,-0.8756 -0.57377,-2.25904 -0.85808,-4.13386 -3.25826,3.13671 -6.51034,5.38237 -9.72843,6.72667 -4.39963,1.79343 -9.49974,2.69066 -15.32505,2.69066 -7.73824,0 -13.61196,-1.79652 -17.62427,-5.3803 -4.01231,-3.58583 -6.02412,-8.00401 -6.02412,-13.25863 z m 162.46284,74.0479 c -2.36309,5.39678 -5.63268,9.41939 -9.80775,12.08739 -4.17403,2.66903 -8.80853,4.01643 -13.90039,4.01643 -4.3574,0 -8.34498,-0.95286 -11.97099,-2.82665 -2.72878,-1.46688 -5.69243,-4.21523 -8.90846,-8.24711 l 0,9.59142 -23.27961,0 0,-89.56662 25.11116,0 0,31.03846 c 2.48464,-2.60723 5.30407,-4.56445 8.46138,-5.86858 3.15731,-1.30412 6.64117,-1.94898 10.46908,-1.95001 7.90306,0.001 14.44224,2.83694 19.61446,8.5201 5.17222,5.68212 7.75884,13.83756 7.75884,24.46734 0,7.08926 -1.18566,13.34104 -3.54772,18.73783 z m 74.63197,-66.73613 c -2.97394,3.60438 -6.76168,6.40732 -11.38691,8.40266 -4.62213,1.99637 -10.49483,2.98322 -17.62427,2.98322 -6.88427,0 -12.61275,-0.64691 -17.19574,-1.93044 -4.58093,-1.28249 -8.53349,-3.34788 -11.83193,-6.21882 -3.30049,-2.87196 -5.88712,-6.24869 -7.7609,-10.11883 -1.87275,-3.87015 -2.80707,-9.00735 -2.80707,-15.40334 0,-6.67928 1.13107,-12.22955 3.41175,-16.66936 1.66879,-3.25826 3.95153,-6.18688 6.8441,-8.7735 2.89154,-2.58663 5.87372,-4.5078 8.93008,-5.77072 4.8467,-1.996366 11.06037,-3.00279 18.63791,-3.00279 10.5896,0 18.65336,1.90469 24.21496,5.69243 5.55851,3.78877 9.47604,9.31946 11.71758,16.61063 l -23.41559,3.1192 c -0.73344,-2.76999 -2.06229,-4.85288 -3.99685,-6.25899 -1.93456,-1.40611 -4.53973,-2.10556 -7.79696,-2.10556 -4.11532,0 -7.43744,1.47306 -9.98286,4.42641 -2.54542,2.95335 -3.82071,7.42611 -3.82071,13.41315 0,5.33498 1.25572,9.37716 3.78259,12.14611 2.52379,2.76999 5.76042,4.17301 9.67074,4.17301 3.25723,0 5.98807,-0.84573 8.20797,-2.51555 2.21887,-1.66982 3.89075,-4.2379 4.99092,-7.70115 l 23.62882,2.68963 c -1.30619,4.93117 -3.44368,9.20719 -6.41763,12.8126 z"
     id="path25"
     inkscape:connector-curvature="0"
     style="fill:#ffffff"
     sodipodi:nodetypes="scscccsssscccscccccccssssccccccccccscccccsscccsscccccccscccccscccccccsccscccscccscccscccsssscscccc" />
</svg>

<svg width="580" height="580" viewBox="0 0 580 580" fill="none" xmlns="http://www.w3.org/2000/svg">
<g clip-path="url(#clip0)">
<path d="M66.2751 1.76802C24.9401 1.76802 1.7041 23.139 1.7041 66.804V516.927C1.7041 557.771 22.5981 579.156 63.8961 579.156H515.92C557.227 579.156 578.149 558.84 578.149 516.927V66.804C578.149 24.203 557.227 1.76802 514.627 1.76802C514.624 1.76802 66.1331 1.62502 66.2751 1.76802Z" fill="#111111" stroke="#EEEEEE" stroke-width="3.408"/>
<path d="M151.971 306.316C136.808 306.316 123.796 315.529 118.227 328.664L115.334 363.979V402.734C115.334 407.449 116.232 411.95 117.854 416.09H38.7207V442.879V453.596V546.471H63.4997V453.596H317.574V546.471H342.35V453.596H342.352V416.09H263.219C264.841 411.95 265.738 407.449 265.738 402.734V363.98L262.846 328.662C257.277 315.53 244.265 306.316 229.102 306.316H151.971H151.971ZM144.258 355.49H152.936V416.09H144.258V355.49ZM228.137 355.49H236.814V416.09H228.137V355.49Z" fill="white"/>
<path d="M190.537 201.072C165.776 201.072 145.703 221.144 145.703 245.904C145.703 270.665 165.776 290.736 190.537 290.736C215.298 290.736 235.369 270.665 235.369 245.904C235.369 221.144 215.298 201.072 190.537 201.072Z" fill="white"/>
<path d="M321.611 152.997C324.381 152.997 326.968 152.314 329.351 150.97C331.734 149.625 333.423 147.992 334.421 146.057C335.419 144.123 335.921 141.607 335.921 138.511V134.534C332.501 135.756 328.925 136.833 325.217 137.771C320.167 139.115 316.969 140.445 315.625 141.748C314.239 143.092 313.559 144.619 313.559 146.33C313.559 148.284 314.242 149.884 315.605 151.126C316.97 152.369 318.963 152.997 321.611 152.997V152.997Z" fill="white"/>
<path d="M419.619 189.066C416.239 189.066 413.491 190.305 411.353 192.81C409.214 195.315 408.136 199.123 408.136 204.214C408.136 209.795 409.197 213.837 411.295 216.341C413.391 218.846 416.033 220.104 419.249 220.104C422.223 220.104 424.721 218.864 426.737 216.401C428.753 213.936 429.776 209.787 429.776 203.962C429.776 198.83 428.79 195.076 426.813 192.674C424.838 190.27 422.43 189.066 419.619 189.066V189.066Z" fill="white"/>
<path d="M547.718 77.0001H444.809L423.313 26.2586C421.67 22.3802 417.714 20.185 413.735 20.597C409.747 20.184 405.795 22.3843 404.155 26.2678L382.725 77.0011H281.592C278.148 77.0011 275.354 79.7937 275.354 83.2405V249.808C275.354 253.254 278.148 256.048 281.592 256.048H312.258L294.994 297.844C293.02 302.62 295.294 308.092 300.072 310.065C301.24 310.549 304.217 310.776 305.407 310.776C309.083 310.776 315.235 308.597 316.725 304.989L337.28 256.048H488.145L508.097 304.989C510.07 309.765 519.621 312.039 524.398 310.065C529.173 308.092 534.448 302.62 532.474 297.844L515.212 256.048H547.717C551.164 256.048 553.957 253.254 553.957 249.808V83.2395C553.957 79.7937 551.164 77.0001 547.718 77.0001V77.0001ZM413.746 57.1592L420.982 77.0011H406.54L413.746 57.1592ZM288.624 148.162C288.624 143.232 290.08 139.174 292.972 135.996C295.863 132.818 301.199 130.466 308.979 128.918C318.307 127.044 324.34 125.734 327.111 124.979C329.88 124.226 332.828 123.238 335.923 122.017C335.923 118.961 335.295 116.823 334.033 115.602C332.769 114.38 330.54 113.769 327.364 113.769C323.29 113.769 320.237 114.415 318.2 115.72C316.611 116.738 315.317 118.66 314.34 121.471L290.575 118.956C291.469 114.801 292.764 111.533 294.454 109.149C296.144 106.766 298.588 104.701 301.765 102.95C304.046 101.686 307.17 100.717 311.162 100.025C315.154 99.333 319.484 98.9725 324.127 98.9725C331.581 98.9725 337.562 99.4051 342.084 100.24C346.605 101.075 350.378 102.817 353.393 105.464C355.51 107.298 357.181 109.883 358.403 113.244C359.626 116.605 360.235 119.82 360.235 122.875V151.516C360.235 154.57 360.431 156.979 360.82 158.71C361.164 160.252 361.894 162.197 362.966 164.5L362.957 165.338H340.017C339.078 163.668 338.469 162.393 338.184 161.517C337.899 160.641 337.61 159.258 337.326 157.383C334.068 160.52 330.816 162.766 327.598 164.11C323.198 165.903 318.098 166.801 312.273 166.801C304.534 166.801 298.661 165.004 294.648 161.42C290.636 157.834 288.624 153.416 288.624 148.162H288.624ZM451.087 222.209C448.724 227.606 445.454 231.629 441.279 234.297C437.105 236.966 432.471 238.313 427.379 238.313C423.021 238.313 419.034 237.36 415.408 235.487C412.679 234.02 409.715 231.271 406.499 227.24V236.831H383.22V147.264H408.331V178.303C410.815 175.696 413.635 173.738 416.792 172.434C419.949 171.13 423.433 170.485 427.261 170.484C435.164 170.485 441.703 173.321 446.876 179.004C452.048 184.686 454.635 192.842 454.635 203.472C454.635 210.561 453.449 216.813 451.087 222.209V222.209ZM525.719 155.473C522.745 159.078 518.957 161.881 514.332 163.876C509.71 165.872 503.837 166.859 496.708 166.859C489.823 166.859 484.095 166.212 479.512 164.929C474.931 163.646 470.978 161.581 467.68 158.71C464.379 155.838 461.793 152.461 459.919 148.591C458.046 144.721 457.112 139.584 457.112 133.188C457.112 126.509 458.243 120.958 460.524 116.518C462.193 113.26 464.475 110.332 467.368 107.745C470.259 105.158 473.242 103.237 476.298 101.974C481.145 99.9779 487.358 98.9714 494.936 98.9714C505.525 98.9714 513.589 100.876 519.151 104.664C524.709 108.453 528.627 113.983 530.868 121.274L507.453 124.394C506.719 121.624 505.39 119.541 503.456 118.135C501.521 116.729 498.916 116.029 495.659 116.029C491.544 116.029 488.222 117.502 485.676 120.456C483.131 123.409 481.855 127.882 481.855 133.869C481.855 139.204 483.111 143.246 485.638 146.015C488.162 148.785 491.398 150.188 495.309 150.188C498.566 150.188 501.297 149.342 503.517 147.672C505.736 146.002 507.407 143.434 508.508 139.971L532.136 142.661C530.83 147.592 528.693 151.868 525.719 155.473V155.473Z" fill="white"/>
</g>
<defs>
<clipPath id="clip0">
<path d="M0 0H580V580H0V0Z" fill="white"/>
</clipPath>
</defs>
</svg>
